X: 1132
T: Hüzün
C: Selahattin İçli
O: Turkey
F: http://compmusic.upf.edu/node/140
N: kurdilihicazkar--sarki--nimsofyan--huzun--selahattin_icli
N: makam= kurdilihicazkar
N: form= sarki
N: usul= nimsofyan = 2/4
M: 2/4
L: 1/16
K: C _B _e _A 
Q: 1/4=69
%%MIDI tuningsystem comma53
z2(3ggg z2(3ggg  | z2(3ggg (3gggag  | \
w:   |   | 
z2(3ggg z2(3ggg  | 
w:   | 
z2(3ggg (3gggag  | z2e'2 d'2c'2  | b2a2 g2f2  | \
w:   |   |   | 
g2(3ggg (3gggag  | 
w:   | 
G2(3GGG (3GGGAG  | G2(3GGG (3GGGAG  | \
w:   |   | 
G2(3GGG (3GGGAG  | 
w:   | 
G2(3GGG (3GGGAG  | G2(3GGG (3GGGAG  | \
w:   |   | 
G2(3GGG (3GGGAG  | 
w:   | 
G2(3GGG (3GGGAG  | G2(3GGG (3GGGAG  | \
w:   |   | 
G2(3GGG (3GGGAG  | 
w:   | 
G2(3GGG (3GGGAG  | G2(3GGG (3GGGAG  | \
w:   |   | 
G2(3GGG (3GGGAG  | 
w:   | 
G2(3GGG (3GGGAG  | G2(3GGG (3GGGAG  | \
w:   |   | 
G2(3GGG (3GGGAG  | 
w:   | 
G2(3GGG (3GGGAG  | G2(3GGG (3GGGAG  | \
w:   |   | 
G2(3GGG (3GGGAG  | 
w:   | 
G2(3GGG (3GGGAG  | G2(3GGG (3GGGAG  | \
w:   |   | 
G2(3GGG (3GGGAG  | 
w:   | 
G2(3GGG (3GGGAG  | G2(3GGG (3GGGAG  | \
w:   |   | 
G2(3GGG (3GGGAG  | 
w:   | 
G2(3GGG (3GGGAG  | G2(3GGG (3GGGAG  | \
w:   |   | 
G2(3GGG (3GGGAG  | 
w:   | 
G2(3GGG (3GGGAG  | G2(3GGG (3GGGAG  | \
w:   |   | 
G2(3GGG (3GGGAG  | 
w:   | 
G2(3GGG (3GGGAG  | G2(3GGG (3GGGAG  | \
w:   |   | 
G2(3GGG (3GGGAG  | 
w:   | 
G2(3GGG (3GGGAG  | G2(3GGG (3GGGAG  | \
w:   |   | 
cg7  | ag2a g4  | 
w:  Hü zün   |  za man  za man    | 
z2bc' d'3b  | a3g fg3  | zd2e c4  | (3G2A2B2 A2zF  | \
w:  De li  dal ga  |  lar la  ge lir    |  Gön lü mün   |  kı yı sı na  vu  | 
G2(3GGG (3GGGAG  | 
w:  rur   SAZ  | 
G2(3GGG (3GGGAG  | cg7  | ag2a g4  | z2bc' d'3b  | \
w:  *  SAZ  |  Hü zün   |  za man  za man    |  De li  dal ga  | 
a3g fg3  | 
w:  lar la  ge lir    | 
zg2a f4  | (3g2a2b2 a2zf  | g2(3GGG (3GGGAG  | \
w:  Gön lü mün   |  kı yı sı na  vu  |  rur   SAZ  | 
g2(3GGG (3GGGAG  | 
w:  *  SAZ  | 
z2fg a4  | z2ga g3a  | g4 b4  | g2(3GGG (3GGGAG  | \
w:  A şı nan   |  ka ya lar  gi  |  bi  rû  |  hum   SAZ  | 
.c'4 .g4  | 
w:  Sus kun   | 
b4 a4  | a3g g2zg  | g2(3GGG (3GGGAG  | \
w:  yor gun   |  öy le ce  du  |  rur   SAZ  | 
.e4 .c4  | d4 B4  | A3G G2zG  | 
w:  Sus kun   |  yor gun   |  öy le ce  du  | 
G2(3GGG (3GGGAG  | g2c'2 c'2c'c'  | c'c'3 c'3b  | \
w:  rur   SAZ  |  Is lak  kum la ra   |  ya zıl mış  hi  | 
d'3d' d'4  | 
w:  kâ ye ler    | 
z2g2 a2b2  | fga2 z4  | efg6  | ag2a g4  | \
w:  Um mâ na   |  ka rı şır   |  si li nir   |  ya vaş  ya vaş    | 
g4 z4  | g2c'2 c'2c'c'  | 
w:   |  Is lak  kum la ra   | 
c'c'3 c'3b  | d'3d' d'4  | z2g2 a2b2  | \
w:  ya zıl mış  hi  |  kâ ye ler    |  Um mâ na   | 
fga2 z4  | efg6  | ag2a g4  | 
w:  ka rı şır   |  si li nir   |  ya vaş  ya vaş    | 
g4 z4  | z2a2 g2f2  | e2d2 c4  | z2G2 A2B2  | \
w:   |  Her  dal ga   |  öm rüm den   |  bir  şey ler   | 
z2FG A4  | z2e2 d2c2  | 
w:  ko pa rır    |  Her  dal ga   | 
B2c2 d4  | z2G2 A2B2  | z2AB G4  | z12  | g4c'4c'4  | \
w:  öm rüm den   |  bir  şey ler   |  ko pa rır    |  |  A ğır  a  | 
c'8c'4  | =b12  | c'12  | =b12  | =b8z4  | 
w:  ğır  sö  |  nen   |  gön  |  lüm   |   | 
d'12  | d'12  | d'8e'4  | c'4d'8  | e'12  | e'8z4  | e'12  | d'12  | \
w:  sa  |  kin   |  koy la  |  rı  öz  |  ler    |   |  Son   |  kum   | 
c'8b4  | d'12  | g4a4b4  | a4g12a4g4  | 
w:  ta ne  |  si   |  o la na   |  ka dar   SAZ  | 
f4e4d4  | g4c'4c'4  | c'8c'4  | =b12  | c'12  | =b12  | \
w:   |  A ğır  a  |  ğır  sö  |  nen   |  gön  |  lüm   | 
=b8z4  | d'12  | d'12  | d'8e'4  | c'4d'8  | e'12  | \
w:   |  sa  |  kin   |  koy la  |  rı  öz  |  ler    | 
e'8z4  | 
w:   | 
e'12  | d'12  | c'8b4  | d'12  | g4a4b4  | a4g12a4g4  | \
w:  Son   |  kum   |  ta ne  |  si   |  o la na   |  ka dar   SAZ  | 
f4e4d4  | z8  | cg3 g4  | ag2a g4  | 
w:   |  |  Hü zün   |  za man  za man    | 
z2bc' d'3b  | a3g fg3  | zg2a f4  | (3g2a2b2 a2zf  | \
w:  De li dal ga  |  lar la  ge lir    |  Gön lü mün   |  kı yı sı na  vu  | 
g2(3GGG (3GGGAG  | 
w:  rur   SAZ  | 
g2(3GGG (3GGGAG  | cg3 g4  | ag2a g4  | \
w:  *  SAZ  |  Hü zün   |  za man  za man    | 
z2bc' d'3b  | 
w:  De li  dal ga  | 
a3g fg3  | z2e2 d2c2  | Bcd6  | GAB6  | AG3 G4  | |


